src/assets/images/icons/file-icon.svg

<svg width="16" height="19" viewBox="0 0 16 19" fill="none" xmlns="http://www.w3.org/2000/svg">
<path d="M10 0H2C1.46957 0 0.960859 0.200178 0.585786 0.556497C0.210714 0.912816 0 1.39609 0 1.9V17.1C0 17.6039 0.210714 18.0872 0.585786 18.4435C0.960859 18.7998 1.46957 19 2 19H14C14.5304 19 15.0391 18.7998 15.4142 18.4435C15.7893 18.0872 16 17.6039 16 17.1V5.7L10 0ZM14 17.1H2V1.9H9V6.65H14V17.1Z" fill="#CCD6F6"/>
</svg>

<svg xmlns="http://www.w3.org/2000/svg" width="16" height="19" fill="none"><path fill="#CCD6F6" d="M10 0H2C1.47 0 .96.2.586.556.21.913 0 1.396 0 1.9v15.2c0 .504.21.987.586 1.343C.96 18.8 1.47 19 2 19h12c.53 0 1.04-.2 1.414-.556.375-.357.586-.84.586-1.344V5.7L10 0Zm4 17.1H2V1.9h7v4.75h5V17.1Z"/></svg>
